X:1
T:Montpellier Codex #158
T:Montpellier Codex #158
T:Anonymous
T:2011 by Paul R Marchesano. May be freely copied for nonprofit use.
T:2011 by Paul R Marchesano. May be freely copied for nonprofit use.
C:Anonymous
Z:2011 by Paul R Marchesano. May be freely copied for nonprofit use.
%%score 1 2 3
L:1/8
Q:1/4=73
M:3/8
K:C
V:1 treble-8 nm="Triple"
V:2 treble-8 nm="Double"
V:3 treble-8 nm="Teneur"
V:1
 d2 d/c/ | B/A/GB | d2 d/c/ | B2 G/A/ | c2 B | d2 B | B/A/Gd | e/d/c z | ed c/B/ | A2 B | G2 d | %11
w: Mal d'a- *|mors _ _ pres-|nés m'a- *|mi- e, _|Mal d'a-|mor pres-|nés _ _ la|moi! _ _|Pres- * nés _|la, je|vos en|
 edc | c2 B | ABG | c2 z | d2 d/c/ | B/A/GB | B/A/GB | d2 d | c2 c | B2 c | B/A/G z | c2 d | %23
w: pri- * e|Et re-|quier _ en|foi.|S'el sa- *|voit _ _ bien|sans _ _ fain-|ti- e|Les maus|que je|trai, _ _|De voir|
 e/f/ed | d2 d | c2 B | B/A/Bc | !fermata!d3 |] %28
w: sai _ _ _|Queele a-|vroit mer-|cis _ _ de|moi.|
V:2
 A2 B | c2 B | B/A/GA | B2 z | c2 (3B/A/G/ | A2 B | c2 B | c/B/cA | B2 c | d2 B | cBA | BAG | %12
w: Da- me,|je me|cla- * * me-|rai|A a- * *|mor, que|j'ai ser-|vi- * * e|Tres- tos|les jors|de _ ma|vi- * e,|
 c2 B | d2 B | c2 (3B/A/G/ | A2 z | c2 (3c/B/A/ | c2 (3B/A/G/ | A2 B | c2 d | e2 d/c/ | d2 B | %22
w: Com plus|tost les|tro- ve- * *|rai;|Tant que- * *|rai que _ _|je l'a-|vrai, _|Si li _|mous- tre-|
 c2 B/A/ | B2 G | G2 A | c2 B | c/B/AG | !fermata!A3 |] %28
w: rai, a- *|mi- e,|Le do-|lors que|por _ _ vos|trai.|
V:3
 D3 | C2 z | D2 F | E2 z | F3 | D3 | C2 z | F3 | E2 z | D2 E | C2 z | E3 | F3 | D2 z | F3 | D2 z | %16
w: Do-|mi-|no _|_|Do-|mi-|no|Do-|mi-|no _|_|Do-|mi-|no|Do-|mi-|
 C2 D | C2 z | D3 | F3 | E2 z | G3 | F2 z | E2 F | G2 z | F3 | E3 | !fermata!D3 |] %28
w: no _|_|Do-|mi-|no|Do-|mi-|no _|_|Do-|mi-|no|

